X:16028
T:Paddy Fahey's Reel 10
T:Fahey's Flight
R:Reel
C:Paddy Fahey (1916-2019)
O:Ireland; Galway
Z:Paul Hardy's Session Tunebook 2022 (see www.paulhardy.net). Creative Commons cc by-nc-sa licenced.
M:4/4
L:1/8
Q:1/4=120
K:G
DB,|"G"G,2 B,D GBdB|"C"c2 ag "D7"fgdc|"G"BG G/F/G BcdB|"C"cBAG "D7"FDCA,|
"G"G,2 B,D GBdB|"C"c2 ag "D7"fgdc|"G"BG G/F/G BcdB|"D7"cAFA "G"G2:|
|:Bc|"G"dgfa gdBG|"D"FGAB "C"c2 Bc|"Am"Aaag a3g|"D7"fdad bdad|
"G"gg fa gdBG|"D"FGAB "C"c2 Bc|"G"dgg/f/g "D7"defd|cAFA "G"G2:|

